www/assets/icons/find_replace.svg

<svg width="24" height="24" viewBox="0 0 24 24" xmlns="http://www.w3.org/2000/svg" fill='currentColor'><path d="M10.255 5.25488C11.635 5.25488 12.885 5.81488 13.795 6.71488L11.255 9.25488H17.255V3.25488L15.205 5.30488C13.935 4.03488 12.185 3.25488 10.255 3.25488C6.725 3.25488 3.825 5.86488 3.335 9.25488H5.355C5.815 6.97488 7.835 5.25488 10.255 5.25488ZM15.895 14.3949C16.555 13.4949 17.015 12.4249 17.175 11.2549H15.155C14.695 13.5349 12.675 15.2549 10.255 15.2549C8.875 15.2549 7.625 14.6949 6.715 13.7949L9.255 11.2549H3.255V17.2549L5.30501 15.2049C6.57501 16.4749 8.32501 17.2549 10.255 17.2549C11.805 17.2549 13.235 16.7449 14.395 15.8949L19.255 20.7449L20.745 19.2549L15.895 14.3949Z"/></svg>

<svg xmlns="http://www.w3.org/2000/svg" width="24" height="24" viewBox="0 0 24 24" fill='currentColor'><path d="M10.255 5.255c1.38 0 2.63.56 3.54 1.46l-2.54 2.54h6v-6l-2.05 2.05a6.98 6.98 0 0 0-4.95-2.05c-3.53 0-6.43 2.61-6.92 6h2.02a5 5 0 0 1 4.9-4m5.64 9.14a6.9 6.9 0 0 0 1.28-3.14h-2.02a5 5 0 0 1-4.9 4c-1.38 0-2.63-.56-3.54-1.46l2.54-2.54h-6v6l2.05-2.05a6.98 6.98 0 0 0 4.95 2.05c1.55 0 2.98-.51 4.14-1.36l4.86 4.85 1.49-1.49z"/></svg>
